svg/bell_outline.svg

<svg xmlns="http://www.w3.org/2000/svg" viewBox="0 0 24 24"><path d="M16 17H7v-6.5C7 8 9 6 11.5 6S16 8 16 10.5m2 5.5v-5.5c0-3.07-2.14-5.64-5-6.32V3.5A1.5 1.5 0 0 0 11.5 2 1.5 1.5 0 0 0 10 3.5v.68c-2.87.68-5 3.25-5 6.32V16l-2 2v1h17v-1m-8.5 4a2 2 0 0 0 2-2h-4a2 2 0 0 0 2 2"/></svg>

<?xml version="1.0" encoding="UTF-8"?><!DOCTYPE svg PUBLIC "-//W3C//DTD SVG 1.1//EN" "http://www.w3.org/Graphics/SVG/1.1/DTD/svg11.dtd"><svg xmlns="http://www.w3.org/2000/svg" xmlns:xlink="http://www.w3.org/1999/xlink" version="1.1" id="mdi-bell-outline" width="24" height="24" viewBox="0 0 24 24"><path d="M16,17H7V10.5C7,8 9,6 11.5,6C14,6 16,8 16,10.5M18,16V10.5C18,7.43 15.86,4.86 13,4.18V3.5A1.5,1.5 0 0,0 11.5,2A1.5,1.5 0 0,0 10,3.5V4.18C7.13,4.86 5,7.43 5,10.5V16L3,18V19H20V18M11.5,22A2,2 0 0,0 13.5,20H9.5A2,2 0 0,0 11.5,22Z" /></svg>
